app/assets/images/icons/active/comment.svg

<svg width="32" height="232" viewBox="0 0 32 232" xmlns="http://www.w3.org/2000/svg"><title>comment</title><g fill="none"><path d="M23.232 142.623c-1.768 1.098-3.978 1.797-6.393 1.938l-4.7 4.451v-4.945c-4.442-1.215-7.639-4.447-7.639-8.276 0-4.859 5.146-8.791 11.494-8.791 6.346 0 11.506 3.932 11.506 8.791 0 2.731-1.636 5.18-4.202 6.791l-.067.041zm0 0" fill="#206FAC"/><path d="M23.232 102.623c-1.768 1.098-3.978 1.797-6.393 1.938l-4.7 4.451v-4.945c-4.442-1.215-7.639-4.447-7.639-8.276 0-4.859 5.146-8.791 11.494-8.791 6.346 0 11.506 3.932 11.506 8.791 0 2.731-1.636 5.18-4.202 6.791l-.067.041zm0 0" fill="#fff"/><path d="M23.232 62.623c-1.768 1.098-3.978 1.797-6.393 1.938l-4.7 4.451v-4.945c-4.442-1.215-7.639-4.447-7.639-8.276 0-4.859 5.146-8.791 11.494-8.791 6.346 0 11.506 3.932 11.506 8.791 0 2.731-1.636 5.18-4.202 6.791l-.067.041zm0 0" fill="#67737B"/><path d="M23.232 22.623c-1.768 1.098-3.978 1.797-6.393 1.938l-4.7 4.451v-4.945c-4.442-1.215-7.639-4.447-7.639-8.276 0-4.859 5.146-8.791 11.494-8.791 6.346 0 11.506 3.932 11.506 8.791 0 2.731-1.636 5.18-4.202 6.791l-.067.041zm0 0" fill="#3A434E"/></g></svg>

<svg width="32" height="232" viewBox="0 0 32 232" xmlns="http://www.w3.org/2000/svg"><title>comment</title><g fill="none"><path d="M23.232 142.623c-1.768 1.098-3.978 1.797-6.393 1.938l-4.7 4.452v-4.945c-4.443-1.215-7.64-4.447-7.64-8.276 0-4.858 5.146-8.79 11.494-8.79 6.346 0 11.506 3.932 11.506 8.79 0 2.732-1.636 5.18-4.202 6.792l-.067.04zm0 0" fill="#206FAC"/><path d="M23.232 102.623c-1.768 1.098-3.978 1.797-6.393 1.938l-4.7 4.452v-4.945C7.696 102.852 4.5 99.62 4.5 95.79 4.5 90.933 9.646 87 15.994 87 22.34 87 27.5 90.932 27.5 95.79c0 2.732-1.636 5.18-4.202 6.792l-.067.04zm0 0" fill="#fff"/><path d="M23.232 62.623c-1.768 1.098-3.978 1.797-6.393 1.938l-4.7 4.452v-4.945C7.696 62.852 4.5 59.62 4.5 55.79 4.5 50.933 9.646 47 15.994 47 22.34 47 27.5 50.932 27.5 55.79c0 2.732-1.636 5.18-4.202 6.792l-.067.04zm0 0" fill="#67737B"/><path d="M23.232 22.623c-1.768 1.098-3.978 1.797-6.393 1.938l-4.7 4.452v-4.945C7.696 22.852 4.5 19.62 4.5 15.79 4.5 10.933 9.646 7 15.994 7 22.34 7 27.5 10.932 27.5 15.79c0 2.732-1.636 5.18-4.202 6.792l-.067.04zm0 0" fill="#3A434E"/></g></svg>
